X:156
T: MARTIN WAR EIN FROMMER MANN
N: E1270A
O: Europa, Mitteleuropa, Deutschland
R: Ansinge -, Kinder -, Brauchtums - Lied, Kirchen - Fest, Sankt Martin
M: 4/4
L: 1/4
K: F
 | c2A2 | c2A2 |
FGAB | ccA2 |
FGAB | ccA2 |
FGAB | ccA2 |
dcBA | GGF2

@@@ Tune index: 4840
